svg/upload_lock_outline.svg

<svg xmlns="http://www.w3.org/2000/svg" viewBox="0 0 24 24"><path d="M22 22h-5c-.5 0-1-.5-1-1v-4c0-.5.5-1 1-1v-1.5c0-1.4 1.1-2.5 2.5-2.5s2.5 1.1 2.5 2.5V16c.5 0 1 .5 1 1v4c0 .5-.5 1-1 1M5 18h9v2H5zm16-2v-1.5c0-.8-.7-1.5-1.5-1.5s-1.5.7-1.5 1.5V16zM9 16v-6H5l7-7 7 7h-4v6zm.83-8H11v6h2V8h1.17L12 5.83z"/></svg>

<?xml version="1.0" encoding="UTF-8"?><!DOCTYPE svg PUBLIC "-//W3C//DTD SVG 1.1//EN" "http://www.w3.org/Graphics/SVG/1.1/DTD/svg11.dtd"><svg xmlns="http://www.w3.org/2000/svg" xmlns:xlink="http://www.w3.org/1999/xlink" version="1.1" id="mdi-upload-lock-outline" width="24" height="24" viewBox="0 0 24 24"><path d="M22 22H17C16.5 22 16 21.5 16 21V17C16 16.5 16.5 16 17 16V14.5C17 13.1 18.1 12 19.5 12C20.9 12 22 13.1 22 14.5V16C22.5 16 23 16.5 23 17V21C23 21.5 22.5 22 22 22M5 18H14V20H5V18M21 16V14.5C21 13.7 20.3 13 19.5 13C18.7 13 18 13.7 18 14.5V16H21M9 16V10H5L12 3L19 10H15V16H9M9.83 8H11V14H13V8H14.17L12 5.83L9.83 8Z" /></svg>
